assets/images/icons/cross.svg

<svg height="49" viewBox="0 0 48 49" width="48" xmlns="http://www.w3.org/2000/svg"><path d="m722.003954 523.067837 19.73153-19.731529c.976471-.976472 2.559645-.976472 3.536116 0 .976472.976471.976472 2.559644 0 3.536116l-19.73153 19.73153 19.73153 19.73153c.976472.976471.976472 2.559645 0 3.536116-.976471.976472-2.559645.976472-3.536116 0l-19.73153-19.73153-19.73153 19.73153c-.976472.976472-2.559645.976472-3.536116 0-.976472-.976471-.976472-2.559645 0-3.536116l19.731529-19.73153-19.731529-19.73153c-.976472-.976472-.976472-2.559645 0-3.536116.976471-.976472 2.559644-.976472 3.536116 0z" fill="#232d37" transform="translate(-698 -502)"/></svg>

<?xml version="1.0" encoding="UTF-8"?>
<svg width="48px" height="49px" viewBox="0 0 48 49" version="1.1" xmlns="http://www.w3.org/2000/svg" xmlns:xlink="http://www.w3.org/1999/xlink">
    <!-- Generator: Sketch 51.3 (57544) - http://www.bohemiancoding.com/sketch -->
    <title>Combined Shape</title>
    <desc>Created with Sketch.</desc>
    <defs></defs>
    <g id="Design" stroke="none" stroke-width="1" fill="none" fill-rule="evenodd">
        <g id="Search-Desktop" transform="translate(-698.000000, -502.000000)" fill="#232D37" fill-rule="nonzero">
            <path d="M722.003954,523.067837 L741.735484,503.336308 C742.711955,502.359836 744.295129,502.359836 745.2716,503.336308 C746.248072,504.312779 746.248072,505.895952 745.2716,506.872424 L725.54007,526.603954 L745.2716,546.335484 C746.248072,547.311955 746.248072,548.895129 745.2716,549.8716 C744.295129,550.848072 742.711955,550.848072 741.735484,549.8716 L722.003954,530.14007 L702.272424,549.8716 C701.295952,550.848072 699.712779,550.848072 698.736308,549.8716 C697.759836,548.895129 697.759836,547.311955 698.736308,546.335484 L718.467837,526.603954 L698.736308,506.872424 C697.759836,505.895952 697.759836,504.312779 698.736308,503.336308 C699.712779,502.359836 701.295952,502.359836 702.272424,503.336308 L722.003954,523.067837 Z" id="Combined-Shape"></path>
        </g>
    </g>
</svg>
